src/Assets/key.svg

<svg width="24" height="24" viewBox="0 0 24 24" fill="none" xmlns="http://www.w3.org/2000/svg">
<path d="M0 6C0 2.68629 2.68629 0 6 0H18C21.3137 0 24 2.68629 24 6V18C24 21.3137 21.3137 24 18 24H6C2.68629 24 0 21.3137 0 18V6Z" fill="#D99E20" fill-opacity="0.2"/>
<path d="M17.8425 6.16523C15.6225 3.95273 12.0225 3.95273 9.81749 6.16523C8.26499 7.70273 7.79999 9.91523 8.39999 11.8652L4.87499 15.3902C4.62749 15.6452 4.45499 16.1477 4.50749 16.5077L4.73249 18.1427C4.81499 18.6827 5.31749 19.1927 5.85749 19.2677L7.49249 19.4927C7.85249 19.5452 8.35499 19.3802 8.60999 19.1177L9.22499 18.5027C9.37499 18.3602 9.37499 18.1202 9.22499 17.9702L7.76999 16.5152C7.55249 16.2977 7.55249 15.9377 7.76999 15.7202C7.98749 15.5027 8.34749 15.5027 8.56499 15.7202L10.0275 17.1827C10.17 17.3252 10.41 17.3252 10.5525 17.1827L12.1425 15.6002C14.085 16.2077 16.2975 15.7352 17.8425 14.1977C20.055 11.9852 20.055 8.37773 17.8425 6.16523ZM13.875 12.0002C12.84 12.0002 12 11.1602 12 10.1252C12 9.09023 12.84 8.25023 13.875 8.25023C14.91 8.25023 15.75 9.09023 15.75 10.1252C15.75 11.1602 14.91 12.0002 13.875 12.0002Z" fill="#D99E20"/>
</svg>

<svg xmlns="http://www.w3.org/2000/svg" width="24" height="24" fill="none"><path fill="#D99E20" fill-opacity=".2" d="M0 6a6 6 0 0 1 6-6h12a6 6 0 0 1 6 6v12a6 6 0 0 1-6 6H6a6 6 0 0 1-6-6z"/><path fill="#D99E20" d="M17.843 6.165c-2.22-2.212-5.82-2.212-8.026 0a5.66 5.66 0 0 0-1.417 5.7L4.875 15.39c-.248.255-.42.758-.368 1.118l.225 1.635c.083.54.585 1.05 1.125 1.125l1.635.225c.36.052.863-.113 1.118-.375l.615-.615a.37.37 0 0 0 0-.533L7.77 16.515a.566.566 0 0 1 0-.795.566.566 0 0 1 .795 0l1.463 1.463a.376.376 0 0 0 .524 0l1.59-1.583a5.68 5.68 0 0 0 5.7-1.402 5.69 5.69 0 0 0 0-8.033M13.875 12a1.876 1.876 0 1 1 .001-3.751A1.876 1.876 0 0 1 13.875 12"/></svg>
